X:5
T: SCHLAF KINDCHEN WOHLE
N: K0024
O: Europa, Mitteleuropa, Deutschland, Untertaunus, Niederreifenberg
R: Kinder -, Wiegen - Lied
M: 2/4
L: 1/16
K: F
 | c4B2G2 | F4C4 |
ccc2BBG2 | F4C4 |
FFF2GGG2 | A2d2c4 |
B2G2A2F2 | G2G2F4

@@@ Tune index: 7342
